picto/currency-exchange.svg

<svg class="color-immutable" width="24" height="24" viewBox="0 0 24 24" fill="none" xmlns="http://www.w3.org/2000/svg"><path d="M-0.000976562 22.499V1.49899C-0.000976562 0.673993 0.674023 -0.00100708 1.49902 -0.00100708H22.499C23.324 -0.00100708 23.999 0.673993 23.999 1.49899V22.499C23.999 23.324 23.324 23.999 22.499 23.999H1.49902C0.674023 23.999 -0.000976562 23.324 -0.000976562 22.499Z" fill="#2D327D"/><path d="M2.99902 2.99899V11.999H4.58402C4.67702 11.591 4.84202 11.211 5.06802 10.874H4.12402V4.12399H19.874V10.874H10.68C10.906 11.211 11.071 11.591 11.164 11.999H20.999V2.99899H2.99902Z" fill="white"/><path d="M11.974 4.87399C10.524 4.87399 9.349 6.04899 9.349 7.49899C9.349 8.94899 10.524 10.124 11.974 10.124C13.424 10.124 14.599 8.94899 14.599 7.49899C14.599 6.04899 13.424 4.87399 11.974 4.87399ZM11.119 8.10499C10.997 8.24899 10.825 8.32099 10.602 8.32099C10.365 8.32099 10.18 8.23699 10.048 8.06999C9.936 7.92699 9.88 7.74899 9.88 7.53499C9.88 7.31099 9.947 7.12399 10.081 6.97399C10.215 6.82499 10.393 6.74999 10.615 6.74999C10.822 6.74999 10.989 6.81799 11.115 6.95499C11.205 7.05099 11.255 7.16199 11.265 7.28799H10.942C10.924 7.20299 10.886 7.13799 10.828 7.09199C10.77 7.04599 10.696 7.02299 10.608 7.02299C10.466 7.02299 10.359 7.08299 10.289 7.20199C10.236 7.29299 10.21 7.40399 10.21 7.53599C10.21 7.67099 10.238 7.78399 10.293 7.87399C10.363 7.98899 10.468 8.04699 10.606 8.04699C10.704 8.04699 10.783 8.01799 10.841 7.95999C10.899 7.90199 10.935 7.81699 10.949 7.70599H11.275C11.264 7.86199 11.212 7.99499 11.119 8.10499ZM12.758 8.28599H12.431V7.63199H11.818V8.28499H11.491V6.78599H11.818V7.35499H12.431V6.78599H12.758V8.28599ZM14.009 7.41099V7.66799H13.375V8.28499H13.048V6.78599H14.103V7.06299H13.375V7.41099H14.009Z" fill="white"/><path d="M7.89203 10.124C6.44203 10.124 5.26703 11.299 5.26703 12.749C5.26703 14.199 6.44203 15.374 7.89203 15.374C9.34203 15.374 10.517 14.199 10.517 12.749C10.517 11.299 9.34203 10.124 7.89203 10.124ZM8.53003 12.049C8.39103 11.952 8.27303 11.884 8.17603 11.846C8.08003 11.808 7.97903 11.789 7.87603 11.789C7.60003 11.789 7.40403 11.987 7.28703 12.382H8.40303L8.28603 12.714H7.22803C7.22703 12.748 7.22603 12.78 7.22603 12.808C7.22603 12.839 7.22703 12.87 7.22803 12.898H8.20603L8.08103 13.23H7.29603C7.41803 13.595 7.61203 13.778 7.88003 13.778C7.96903 13.778 8.05603 13.765 8.14203 13.738C8.22803 13.711 8.35503 13.658 8.52303 13.577V14.155C8.21003 14.248 7.98403 14.294 7.84403 14.294C7.59403 14.294 7.36203 14.213 7.14903 14.052C6.91003 13.873 6.74803 13.599 6.66503 13.23H6.27803L6.39903 12.898H6.61203C6.60903 12.838 6.60803 12.796 6.60803 12.773C6.60803 12.759 6.60803 12.74 6.60803 12.714H6.27803L6.39903 12.382H6.65303C6.70903 12.14 6.80603 11.927 6.94403 11.742C7.17503 11.432 7.50003 11.276 7.92003 11.276C8.12803 11.276 8.30903 11.314 8.46303 11.391C8.52303 11.421 8.61103 11.474 8.72503 11.549L8.53003 12.049Z" fill="white"/><path d="M11.999 15.749C10.549 15.749 9.37402 16.924 9.37402 18.374C9.37402 19.824 10.549 20.999 11.999 20.999C13.449 20.999 14.624 19.824 14.624 18.374C14.624 16.924 13.449 15.749 11.999 15.749ZM12.917 19.859C12.798 19.905 12.672 19.928 12.538 19.928C12.459 19.928 12.39 19.923 12.333 19.912C12.276 19.901 12.174 19.874 12.027 19.832C11.872 19.788 11.745 19.766 11.646 19.766C11.569 19.766 11.498 19.778 11.433 19.802C11.367 19.826 11.289 19.869 11.197 19.93L10.939 19.547C11.076 19.45 11.174 19.364 11.234 19.291C11.343 19.156 11.398 19.019 11.398 18.881C11.398 18.807 11.384 18.73 11.357 18.649H10.922V18.3H11.209C11.183 18.237 11.162 18.191 11.147 18.161C11.102 18.06 11.071 17.977 11.055 17.913C11.039 17.849 11.03 17.776 11.03 17.696C11.03 17.487 11.107 17.31 11.26 17.167C11.45 16.991 11.715 16.902 12.054 16.902C12.386 16.902 12.644 16.985 12.826 17.15C13.009 17.315 13.102 17.551 13.108 17.855H12.519C12.516 17.716 12.483 17.61 12.421 17.539C12.339 17.446 12.221 17.4 12.066 17.4C11.953 17.4 11.859 17.431 11.785 17.493C11.711 17.555 11.674 17.634 11.674 17.73C11.674 17.811 11.697 17.907 11.744 18.019C11.792 18.137 11.828 18.23 11.853 18.3H12.396V18.649H11.965C11.977 18.711 11.983 18.771 11.983 18.829C11.983 18.929 11.957 19.022 11.904 19.108C11.851 19.194 11.761 19.293 11.632 19.403C11.765 19.344 11.89 19.315 12.009 19.315C12.088 19.315 12.185 19.33 12.3 19.36C12.423 19.393 12.513 19.409 12.569 19.409C12.721 19.409 12.851 19.351 12.959 19.235L13.211 19.668C13.134 19.749 13.036 19.813 12.917 19.859Z" fill="white"/><path d="M18.769 15.753C18.738 15.734 18.649 15.702 18.504 15.657V16.463C18.792 16.427 18.937 16.294 18.937 16.061C18.937 15.921 18.881 15.818 18.769 15.753Z" fill="white"/><path d="M17.864 14.69C17.864 14.787 17.893 14.862 17.95 14.915C18.007 14.968 18.109 15.012 18.256 15.047V14.333C17.995 14.357 17.864 14.476 17.864 14.69Z" fill="white"/><path d="M18.374 12.749C16.924 12.749 15.749 13.924 15.749 15.374C15.749 16.824 16.924 17.999 18.374 17.999C19.824 17.999 20.999 16.824 20.999 15.374C20.999 13.924 19.824 12.749 18.374 12.749ZM19.284 16.599C19.186 16.704 19.077 16.781 18.957 16.83C18.837 16.878 18.687 16.908 18.505 16.917V17.333H18.257V16.915C17.969 16.899 17.743 16.825 17.58 16.696C17.353 16.514 17.238 16.258 17.235 15.927H17.817C17.814 16.252 17.961 16.431 18.256 16.462V15.595C17.983 15.518 17.794 15.45 17.69 15.39C17.557 15.313 17.46 15.223 17.399 15.118C17.337 15.013 17.307 14.887 17.307 14.738C17.307 14.573 17.35 14.425 17.436 14.296C17.522 14.167 17.644 14.067 17.803 13.996C17.916 13.945 18.068 13.914 18.256 13.902V13.533H18.504V13.902C18.795 13.917 19.019 13.998 19.176 14.145C19.333 14.292 19.414 14.497 19.419 14.759H18.863C18.858 14.51 18.738 14.371 18.504 14.341V15.106C18.523 15.111 18.577 15.125 18.666 15.147C18.96 15.224 19.168 15.317 19.289 15.428C19.439 15.566 19.515 15.754 19.515 15.992C19.515 16.232 19.438 16.435 19.284 16.599Z" fill="white"/></svg>

<svg class="color-immutable" width="24" height="24" viewBox="0 0 24 24" fill="none" xmlns="http://www.w3.org/2000/svg"><g clip-path="url(#a)"><path d="M-.001 22.499v-21c0-.825.675-1.5 1.5-1.5h21c.825 0 1.5.675 1.5 1.5v21c0 .825-.675 1.5-1.5 1.5h-21c-.825 0-1.5-.675-1.5-1.5Z" fill="#2D327D"/><path d="M2.999 2.999v9h1.585c.093-.408.258-.788.484-1.125h-.944v-6.75h15.75v6.75H10.68c.226.337.391.717.484 1.125h9.835v-9h-18Z" fill="#fff"/><path d="M11.974 4.874a2.625 2.625 0 1 0 0 5.25 2.625 2.625 0 0 0 0-5.25Zm-.855 3.231c-.122.144-.294.216-.517.216a.667.667 0 0 1-.554-.251.84.84 0 0 1-.168-.535c0-.224.067-.411.201-.561a.684.684 0 0 1 .534-.224c.207 0 .374.068.5.205.09.096.14.207.15.333h-.323a.326.326 0 0 0-.114-.196.344.344 0 0 0-.22-.069.347.347 0 0 0-.319.179.653.653 0 0 0-.079.334c0 .135.028.248.083.338.07.115.175.173.313.173a.319.319 0 0 0 .235-.087.423.423 0 0 0 .108-.254h.326a.674.674 0 0 1-.156.399Zm1.639.181h-.327v-.654h-.613v.653h-.327V6.786h.327v.569h.613v-.569h.327v1.5Zm1.251-.875v.257h-.634v.617h-.327V6.786h1.055v.277h-.728v.348h.634ZM7.892 10.124a2.625 2.625 0 1 0 0 5.25 2.625 2.625 0 0 0 0-5.25Zm.638 1.925a1.812 1.812 0 0 0-.354-.203.812.812 0 0 0-.3-.057c-.276 0-.472.198-.589.593h1.116l-.117.332H7.228l-.002.094.002.09h.978l-.125.332h-.785c.122.365.316.548.584.548a.868.868 0 0 0 .262-.04c.086-.027.213-.08.381-.161v.578c-.313.093-.539.139-.679.139a1.13 1.13 0 0 1-.695-.242c-.239-.179-.401-.453-.484-.822h-.387l.121-.332h.213a2.73 2.73 0 0 1-.004-.125v-.059h-.33l.121-.332h.254c.056-.242.153-.455.291-.64.231-.31.556-.466.976-.466a1.2 1.2 0 0 1 .543.115c.06.03.148.083.262.158l-.195.5ZM11.999 15.749a2.625 2.625 0 1 0 0 5.25 2.625 2.625 0 0 0 0-5.25Zm.918 4.11a1.04 1.04 0 0 1-.379.069c-.079 0-.148-.005-.205-.016a4.381 4.381 0 0 1-.306-.08 1.46 1.46 0 0 0-.381-.066.61.61 0 0 0-.213.036 1.182 1.182 0 0 0-.236.128l-.258-.383c.137-.097.235-.183.295-.256a.652.652 0 0 0 .164-.41.733.733 0 0 0-.041-.232h-.435V18.3h.287a2.208 2.208 0 0 0-.062-.139 1.605 1.605 0 0 1-.092-.248.898.898 0 0 1-.025-.217c0-.209.077-.386.23-.529.19-.176.455-.265.794-.265.332 0 .59.083.772.248.183.165.276.401.282.705h-.589c-.003-.139-.036-.245-.098-.316-.082-.093-.2-.139-.355-.139a.423.423 0 0 0-.281.093.296.296 0 0 0-.111.237c0 .081.023.177.07.289.048.118.084.211.109.281h.543v.349h-.431a.947.947 0 0 1 .018.18c0 .1-.026.193-.079.279a1.34 1.34 0 0 1-.272.295.928.928 0 0 1 .377-.088c.079 0 .176.015.291.045.123.033.213.049.269.049a.514.514 0 0 0 .39-.174l.252.433a.793.793 0 0 1-.294.191ZM18.769 15.753a1.669 1.669 0 0 0-.265-.096v.806c.288-.036.433-.169.433-.402a.33.33 0 0 0-.168-.308ZM17.864 14.69c0 .097.029.172.086.225.057.053.159.097.306.132v-.714c-.261.024-.392.143-.392.357Z" fill="#fff"/><path d="M18.374 12.749a2.625 2.625 0 1 0 0 5.25 2.625 2.625 0 0 0 0-5.25Zm.91 3.85a.925.925 0 0 1-.327.231 1.41 1.41 0 0 1-.452.087v.416h-.248v-.418c-.288-.016-.514-.09-.677-.219-.227-.182-.342-.438-.345-.769h.582c-.003.325.144.504.439.535v-.867c-.273-.077-.462-.145-.566-.205a.77.77 0 0 1-.291-.272.733.733 0 0 1-.092-.38.78.78 0 0 1 .129-.442.838.838 0 0 1 .367-.3 1.33 1.33 0 0 1 .453-.094v-.369h.248v.369c.291.015.515.096.672.243.157.147.238.352.243.614h-.556c-.005-.249-.125-.388-.359-.418v.765l.162.041c.294.077.502.17.623.281.15.138.226.326.226.564 0 .24-.077.443-.231.607Z" fill="#fff"/></g><defs><clipPath id="a"><path fill="#fff" d="M0 0h24v24H0z"/></clipPath></defs></svg>
